X:1
T:Dever the Dancer
T:The Humours of Whiskey
M:9/8
L:1/8
C:Traditional
S:Robin Flower
N:A popular alternate title for this is 'The Humours of Whiskey'.
N:Not sure whether 'Dever' is a proper name or a verb.
R:slipjig
K:D
|:BEE BEF G2A|BEE BAG FGA|BEE BEF G2A|Bcd ABG FED:|
dcd =cAF G2A|dcd def gfe|1 dcd =cAF G2A|Bcd ABG FED:|2
agf gfe f2d|efd =cAG FGA||
